!!!COM: Anonymous
!!!OTL: Je le prens sur ma consience
!!!AGN: Song; Chanson; Rondeau
!!!SCT: Ano3106
!!!SCA: Ano3106
!!!SMS: Dijon Chansonnier
!!!folio: 88v-89r
!!!SMS2: Cop
!!!SMS3: Lab
!!!voices: 3
**kern	**kern	**kern
*staff3	*staff2	*staff1
*Ivox	*Ivox	*Ivox
*I"Contra	*I"Tenor	*I"Discantus
*I'C	*I'T	*I'D
*clefF4	*clefGv2	*clefG2
*k[b-]	*k[b-]	*k[b-]
*M2/1	*M2/1	*M2/1
*met(C|)	*met(C|)	*met(C|)
=1-	=1-	=1-
!!LO:TX:X=-40:Z=8:t=D&colon; editorial flat key sig.
0G	0G	1.g
.	.	4f
.	.	4e
=2	=2	=2
1G	1B-	1d
1G	1B-	1d
=3	=3	=3
1D	1A	1f
1D	1A	1f
=4	=4	=4
1BB-	1G	1g
1GG	1d	1b-
=5	=5	=5
1AA	1.c	2a
.	.	1a
1FF	.	.
.	2A	2g
=6	=6	=6
1r	1B-	1g
1C	1c	1e
=7	=7	=7
1BB-	1d	1d
1GG	1B-	[1g
=8	=8	=8
0D	0A	1g]
.	.	1f#i
=9	=9	=9
1r	0G	0g
1G	.	.
=10	=10	=10
0F	0D	1r
.	.	1a
=11	=11	=11
0G	1r	1b-
.	1G	1b-
=12	=12	=12
0D	1.F	1a
.	.	1a
.	4G	.
.	4A	.
=13	=13	=13
1r	1B-	1g
[1D	1A	[1f
=14	=14	=14
1D]	0d	2f]
.	.	2d
1BB-	.	1f
=15	=15	=15
1C	1c	1e
[1GG	1B-	2d
.	.	[2d
=16	=16	=16
2GG]	0G	2d]
2AA	.	2c
2BB-	.	1B-
2C	.	.
=17	=17	=17
1D	1F	1A
1BB-	1D	[1d
=18	=18	=18
1.AA	0E	1d]
.	.	1c#i
4GG	.	.
4AA	.	.
=19	=19	=19
1BB-	1D	1d
1GG	[1G	1B-
=20	=20	=20
1C	1G]	0A
1D	1F	.
=21	=21	=21
1GG	1G	1r
[1G	1B-	1G
=22	=22	=22
2G]	0A	1.c
2E	.	.
1F	.	.
.	.	4B-
.	.	4A
=23	=23	=23
0G	1G	1B-
.	1G	1d
=24	=24	=24
1r	1.d	2d
.	.	2c
[1GG	.	2B-
.	2c	2A
=25	=25	=25
2GG]	2B-	1G
2FF	2A	.
1GG	1G	1B-
=26	=26	=26
1AA	1c	1A
1BB-	1B-	1G
=27	=27	=27
1GG	1d	1r
1BB-	1B-	[1g
=28	=28	=28
1C	0A	2g]
.	.	2e
1D	.	1f
=29	=29	=29
1.GG	[0G	1g
.	.	[1d
2AA	.	.
=30	=30	=30
1BB-	0G_	1d]
1C	.	1e-i
=31	=31	=31
1BB-	0G_	1d
[1GG	.	[1B-
=32	=32	=32
2GG]	0G]	2B-]
2AA	.	2c
2BB-	.	2d
2C	.	4c
.	.	4B-
=33	=33	=33
[0DN	[0FN	[0AN
=34	=34	=34
0D]	0F]	0A]
=35	=35	=35
[0D	[0F	[0A
=36	=36	=36
0D]	0F]	0A]
=37	=37	=37
0GG	0G	0B-
=38	=38	=38
1GG	1.d	1B-
1GG	.	1B-
.	4c	.
.	4B-	.
=39	=39	=39
0FF	1A	1c
.	1c	1A
=40	=40	=40
1.GG	1B-	1G
.	1G	2B-
2AA	.	2c
=41	=41	=41
1BB-	1r	1d
1C	1G	1e
=42	=42	=42
1AA	1A	1f
1GG	1B-	[1g
=43	=43	=43
1r	0G	2g]
.	.	2f
1C	.	2e
.	.	2d
=44	=44	=44
1AA	1A	1c
1GG	1B-	1d
=45	=45	=45
1AA	1c	1A
1BB-	[1d	1d
=46	=46	=46
0AA	2d]	0e
.	2B-	.
.	1c	.
=47	=47	=47
1BB-	1.d	1r
1GG	.	1d
.	2B-	.
=48	=48	=48
1C	1c	1e
[1D	[1A	[1f
=49	=49	=49
0D]	2A]	2f]
.	2G	2e
.	1F	[1d
=50	=50	=50
0AA	0E	2d]
.	.	2c#i
.	.	2c#i
.	.	2Bni
=51	=51	=51
1.BB-	1.D	1d
.	.	[1f
4AA	2E	.
4GG	.	.
=52	=52	=52
0FF	0F	2f]
.	.	2g
.	.	1a
=53	=53	=53
0GG	1r	1.b-
.	1G	.
.	.	4a
.	.	4g
=54	=54	=54
1r	1A	1.f
1D	1A	.
.	.	4e
.	.	4f
=55	=55	=55
1E	0G	1g
[1G	.	[1b-
=56	=56	=56
1G]	0d	2b-]
.	.	2a
[1F	.	[1a
=57	=57	=57
1F]	1c	2a]
.	.	2g
1BB-	1B-	[1g
=58	=58	=58
1C	0A	2g]
.	.	2f#i
1D	.	2f#i
.	.	2e
=59	=59	=59
1.GG	[0Gl	[0gl
[2C	.	.
=60	=60	=60
2C]	0G_	0g_
2BB-	.	.
2C	.	.
4BB-	.	.
4AA	.	.
=61	=61	=61
0GGl	0G]	0g]
==	==	==
*-	*-	*-
!!!RDF**kern: l=long note in original notation
!!!RDF**kern: i=editorial accidental
!!!RDF**kern: N=signum congruentiae
!!!ENC: Chris Gage 09-07-2016
!!!END: 2018/09/27
!!!EED: Jesse Rodin
!!!EEV: 2018/11/29
!!!ONB: Translated from MusicXML and edited on 2018/11/29/ by Craig Sapp
!!muse2ps: C^@{COM}\n@{SMS}, @{folio}; also @{SMS2}, @{SMS3}^v115,115,150Q16c103
